X: 1
T: Vus Geven iz Geven [Dm]
T: Memories of Days Gone By
C: David Meyerowitz 1926
R: zhok
S: Handwritten MS of unknown origin, in 2018 NEFFA Klezmer Jam handout.
N: "IV-5" at left of title; "Archives" and "11 108.10 Stava"
Z: 2018 John Chambers <jc:trillian.mit.edu>
L: 1/8
M: 3/4
K: Dm
% - - - - - - - - - -
A,DE [|\
"Dm"F4 ED | "A7"E4 D^C | "Dm"D6- | D4 EF |\
"Gm"G4 FE | "C7"G4 FE | "F"F6- | F4 F2 |]|\
"Em"A4 ^G2 | A4 F2 | "Gm"EF G4- | "A7"G4 DE |
"Dm"F2 E2 D2 | "E7"A2 ^G2 F2 | "A7"E6- | E2 zA, DE |[|\
"Dm"F4 ED | "A7"E4 D^C | "Dm"D6- | D4 D2 |\
"Gm"G3 D GA | "D7"B3 A BA | "Gm"G6- | G4 G2 |]
[|\
"Gm"G2 A2 B2 | "C7"B2 A2 G2 | "F"F2 G2 A2 | A4 F2 |\
"Dm"F2 G2 A2 | "Dm"A2 G2 F2 | "Gm"G3 F GF | "A7"E3 A, DE |[|\
"E7"F4 ED | "A7"E4 D^C | "Dm"D6- | D3 |]
% - - - - - - - - - -

%%sep 1 1 500

